X:1
T:Hills of Glenurchie Counterpoint
C:c. 1999 Jim Thompson
R:Jig
N:A flute part for Hills of Glenurchie (trad.)
E:24
M:6/8
K:Em
\bigskip
\bigskip
|: e3 B3 | e3 gfe | d3 A3 | d3 agf |
| e3 B3 | e3 gab | g3 f3 | e3 efg :|
|: b3 g3 | b3 bag | a3 f3 | a3 bab |
| b3 g3 | b3 bag | f3 b3 | e3 efg :|
